src/assets/svg_sources/insta.svg

<svg width="26" height="26" viewBox="0 0 26 26" fill="none" xmlns="http://www.w3.org/2000/svg">
<path d="M25.6749 7.76536C25.6606 6.69241 25.4597 5.63012 25.0813 4.62602C24.7531 3.77907 24.2519 3.00989 23.6096 2.36762C22.9674 1.72534 22.1982 1.22411 21.3512 0.895939C20.36 0.523862 19.3129 0.322673 18.2544 0.300939C16.8916 0.240023 16.4595 0.223022 13 0.223022C9.54048 0.223022 9.09706 0.223023 7.74414 0.300939C6.68612 0.322832 5.63947 0.524019 4.64873 0.895939C3.80164 1.22388 3.03234 1.72504 2.39004 2.36734C1.74774 3.00964 1.24659 3.77894 0.918644 4.62602C0.545821 5.61646 0.345069 6.66335 0.325061 7.72144C0.264144 9.08569 0.245728 9.51777 0.245728 12.9773C0.245728 16.4368 0.245728 16.8788 0.325061 18.2331C0.346311 19.2928 0.546061 20.3383 0.918644 21.3314C1.24714 22.1782 1.74866 22.9472 2.39118 23.5892C3.03369 24.2312 3.80307 24.7322 4.65014 25.06C5.63818 25.4471 6.68501 25.6626 7.74556 25.6975C9.10981 25.7584 9.5419 25.7769 13.0014 25.7769C16.4609 25.7769 16.9043 25.7769 18.2572 25.6975C19.3157 25.6767 20.3629 25.476 21.3541 25.1039C22.2008 24.7754 22.9698 24.274 23.612 23.6318C24.2542 22.9896 24.7556 22.2206 25.0841 21.3739C25.4567 20.3822 25.6565 19.3367 25.6777 18.2756C25.7386 16.9128 25.7571 16.4807 25.7571 13.0198C25.7542 9.56027 25.7542 9.12111 25.6749 7.76536V7.76536ZM12.9915 19.5194C9.37331 19.5194 6.44223 16.5884 6.44223 12.9702C6.44223 9.35202 9.37331 6.42094 12.9915 6.42094C14.7284 6.42094 16.3943 7.11095 17.6225 8.33917C18.8507 9.56739 19.5407 11.2332 19.5407 12.9702C19.5407 14.7072 18.8507 16.373 17.6225 17.6012C16.3943 18.8294 14.7284 19.5194 12.9915 19.5194V19.5194ZM19.8014 7.70586C19.6008 7.70604 19.4021 7.66667 19.2168 7.58999C19.0314 7.51331 18.863 7.40082 18.7211 7.25898C18.5793 7.11713 18.4668 6.9487 18.3901 6.76333C18.3134 6.57796 18.274 6.37929 18.2742 6.17869C18.2742 5.97823 18.3137 5.77974 18.3904 5.59454C18.4671 5.40934 18.5796 5.24107 18.7213 5.09932C18.8631 4.95758 19.0313 4.84514 19.2165 4.76843C19.4017 4.69171 19.6002 4.65223 19.8007 4.65223C20.0011 4.65223 20.1996 4.69171 20.3848 4.76843C20.57 4.84514 20.7383 4.95758 20.8801 5.09932C21.0218 5.24107 21.1342 5.40934 21.211 5.59454C21.2877 5.77974 21.3271 5.97823 21.3271 6.17869C21.3271 7.02302 20.6443 7.70586 19.8014 7.70586Z" fill="#231F20" fill-opacity="0.9"/>
<path d="M12.9914 17.2244C15.341 17.2244 17.2457 15.3198 17.2457 12.9702C17.2457 10.6206 15.341 8.71594 12.9914 8.71594C10.6419 8.71594 8.73718 10.6206 8.73718 12.9702C8.73718 15.3198 10.6419 17.2244 12.9914 17.2244Z" fill="#231F20" fill-opacity="0.9"/>
</svg>

<svg width="26" height="26" fill="none" xmlns="http://www.w3.org/2000/svg"><path d="M25.675 7.765a9.252 9.252 0 00-.594-3.139 6.53 6.53 0 00-3.73-3.73A9.358 9.358 0 0018.254.3C16.892.24 16.46.223 13 .223c-3.46 0-3.903 0-5.256.078A9.358 9.358 0 004.65.896a6.527 6.527 0 00-3.73 3.73 9.285 9.285 0 00-.594 3.095c-.06 1.365-.08 1.797-.08 5.256 0 3.46 0 3.902.08 5.256a9.344 9.344 0 00.594 3.098A6.53 6.53 0 004.65 25.06a9.326 9.326 0 003.096.638c1.364.06 1.796.079 5.255.079 3.46 0 3.903 0 5.256-.08a9.333 9.333 0 003.097-.593 6.537 6.537 0 003.73-3.73 9.329 9.329 0 00.594-3.098c.06-1.363.08-1.795.08-5.256-.004-3.46-.004-3.899-.083-5.255zM12.99 19.52a6.548 6.548 0 01-6.549-6.549 6.548 6.548 0 0111.18-4.63 6.55 6.55 0 01-4.63 11.18zm6.81-11.813a1.525 1.525 0 01-.584-2.938 1.526 1.526 0 11.584 2.938z" fill="#231F20" fill-opacity=".9"/><path d="M12.991 17.224a4.254 4.254 0 100-8.508 4.254 4.254 0 000 8.508z" fill="#231F20" fill-opacity=".9"/></svg>
